packages/foundations/assets/icons/functional/images/business & payment/shopping_cart_14.svg

<svg width="14" height="14" viewBox="0 0 14 14" fill="none" xmlns="http://www.w3.org/2000/svg">
<g clip-path="url(#clip0_184_145)">
<path fill-rule="evenodd" clip-rule="evenodd" d="M5.25044 12.6C5.48226 12.5992 5.70436 12.5068 5.86828 12.3429C6.03221 12.1789 6.12465 11.9568 6.12544 11.725C6.12465 11.4932 6.03221 11.2711 5.86828 11.1072C5.70436 10.9433 5.48226 10.8508 5.25044 10.85C5.13512 10.8485 5.02068 10.8702 4.91385 10.9136C4.80702 10.9571 4.70998 11.0215 4.62843 11.103C4.54688 11.1846 4.48248 11.2816 4.43903 11.3884C4.39558 11.4953 4.37396 11.6097 4.37544 11.725C4.37544 12.206 4.74744 12.6 5.25044 12.6ZM9.97544 12.6C10.2073 12.5995 10.4296 12.5071 10.5936 12.3432C10.7576 12.1792 10.8499 11.9569 10.8504 11.725C10.8499 11.4931 10.7576 11.2709 10.5936 11.1069C10.4296 10.9429 10.2073 10.8506 9.97544 10.85C9.74362 10.8508 9.52152 10.9433 9.35759 11.1072C9.19367 11.2711 9.10123 11.4932 9.10044 11.725C9.10044 12.206 9.49444 12.6 9.97544 12.6ZM2.90944 1.40002C3.56644 1.40002 4.09144 1.86002 4.24444 2.51602L4.30944 2.80002H11.7254C12.1854 2.80002 12.5124 3.21602 12.4034 3.65302L11.6594 6.84702C11.5294 7.37202 11.1344 7.87502 10.4344 7.94102L5.31644 8.42102L5.44644 9.10002H10.3254C10.7194 9.10002 11.0254 9.40602 11.0254 9.80002C11.0254 10.128 10.7194 10.5 10.3254 10.5H5.49144C4.76944 10.5 4.17844 10.019 4.06944 9.38402L2.88744 2.80002H2.27544C2.09019 2.79872 1.9129 2.72455 1.78191 2.59355C1.65092 2.46256 1.57675 2.28527 1.57544 2.10002C1.57544 1.72802 1.90344 1.40002 2.27544 1.40002H2.90944ZM10.8504 4.20002H4.55044L5.07544 7.04402L10.2814 6.54102L10.8504 4.20002Z" fill="#1A1C1F"/>
</g>
<defs>
<clipPath id="clip0_184_145">
<rect width="14" height="14" fill="white"/>
</clipPath>
</defs>
</svg>

<svg xmlns="http://www.w3.org/2000/svg" width="14" height="14" fill="none"><g clip-path="url(#a)"><path fill="#1A1C1F" fill-rule="evenodd" d="M5.25 12.6a.88.88 0 0 0 .875-.875.878.878 0 0 0-1.686-.337.9.9 0 0 0-.064.337c0 .481.372.875.875.875m4.725 0a.877.877 0 0 0 .875-.875.877.877 0 0 0-.875-.875.88.88 0 0 0-.875.875c0 .481.394.875.875.875M2.91 1.4c.657 0 1.182.46 1.335 1.116l.065.284h7.416c.46 0 .787.416.678.853l-.744 3.194c-.13.525-.525 1.028-1.225 1.094l-5.118.48.13.679h4.88c.393 0 .7.306.7.7 0 .328-.307.7-.7.7H5.49c-.722 0-1.313-.481-1.422-1.116L2.887 2.8h-.612a.705.705 0 0 1-.7-.7c0-.372.328-.7.7-.7zm7.941 2.8h-6.3l.525 2.844 5.206-.503z" clip-rule="evenodd"/></g><defs><clipPath id="a"><path fill="#fff" d="M0 0h14v14H0z"/></clipPath></defs></svg>
